Suru++-Ubuntu/apps/scalable/isomaster.svg

<svg width="256" height="256" version="1.1" viewBox="0 0 67.73 67.73" xmlns="http://www.w3.org/2000/svg" xmlns:xlink="http://www.w3.org/1999/xlink">
 <defs>
  <clipPath id="clipPath1082-3-5">
   <path d="M 361.9375,-212 C 507.2348,-212 528,-191.28677 528,-46.125 V 70.125 C 528,215.28618 507.2348,236 361.9375,236 H 214.0625 C 68.7652,236 48,215.28618 48,70.125 V -46.125 C 48,-191.28677 68.7652,-212 214.0625,-212 Z" style="fill:#8c59d9"/>
  </clipPath>
  <filter id="filter4569-2" x="-.01" y="-.01" width="1.023" height="1.025" style="color-interpolation-filters:sRGB">
   <feGaussianBlur stdDeviation="1.16"/>
  </filter>
  <filter id="filter913" x="-.02" y="-.03" width="1.046" height="1.05" style="color-interpolation-filters:sRGB">
   <feGaussianBlur stdDeviation="2.32"/>
  </filter>
  <linearGradient id="linearGradient906" x1="296" x2="296" y1="-212" y2="236" gradientUnits="userSpaceOnUse">
   <stop style="stop-color:#ffffff" offset="0"/>
   <stop style="stop-color:#ffffff;stop-opacity:.09803922" offset=".125"/>
   <stop style="stop-color:#000000;stop-opacity:.09803922" offset=".925"/>
   <stop style="stop-color:#000000;stop-opacity:.49803922" offset="1"/>
  </linearGradient>
  <linearGradient id="linearGradient2658" x1="12.274" x2="35.391" y1="32.416" y2="14.203" gradientTransform="matrix(0,2.2857343,-2.2857343,0,114.17591,10.346275)" gradientUnits="userSpaceOnUse">
   <stop style="stop-color:#dedbde" offset="0"/>
   <stop style="stop-color:#e6e6e6" offset=".5"/>
   <stop style="stop-color:#d2d2d2" offset="1"/>
  </linearGradient>
 </defs>
 <g transform="translate(0,-229.26666)">
  <path transform="matrix(.26970778 0 0 .26970778 -7.1289177 220.56049)" d="m188.96876 45.999995c72.64865 0 83.03125 10.356615 83.03125 82.937505v58.125c0 72.58059-10.3826 82.9375-83.03125 82.9375h-73.9375c-72.648654 0-83.031254-10.35691-83.031254-82.9375v-58.125c0-72.58089 10.3826-82.937505 83.031254-82.937505z" style="filter:url(#filter913);opacity:.2"/>
  <path transform="matrix(.26970778 0 0 .26970778 -7.1289177 220.56049)" d="m188.96876 43.999995c72.64865 0 83.03125 10.356615 83.03125 82.937505v58.125c0 72.58059-10.3826 82.9375-83.03125 82.9375h-73.9375c-72.648654 0-83.031254-10.35691-83.031254-82.9375v-58.125c0-72.58089 10.3826-82.937505 83.031254-82.937505z" style="filter:url(#filter4569-2);opacity:.1"/>
  <path d="m24.300553 232.42763c-9.797337 0-15.39413 0.69699-18.544517 3.84334-3.150381 3.14634-3.849657 8.73736-3.849657 18.52555v15.67677c0 9.78815 0.699276 15.3792 3.849657 18.52555 3.150387 3.14636 8.7471788 3.84333 18.544517 3.84333h19.94152c9.797339 0 15.394134-0.69697 18.544517-3.84333 3.150384-3.14635 3.849659-8.7374 3.849659-18.52555v-15.67677c0-9.78819-0.699275-15.37921-3.849659-18.52555-3.150383-3.14635-8.74718-3.84334-18.544517-3.84334z" style="fill:#4d4d4d"/>
  <path d="m1.5017313 269.93387v0.53942c0 9.78815 0.699276 15.3792 3.849657 18.52555 3.150387 3.14636 8.7471787 3.84333 18.544517 3.84333h19.94152c9.797339 0 15.394134-0.69697 18.544517-3.84333 3.150384-3.14635 3.849659-8.7374 3.849659-18.52555v-0.53942c0 9.78815-0.699275 15.3792-3.849659 18.52555-3.150383 3.14636-8.747178 3.84334-18.544517 3.84334h-19.94152c-9.797338 0-15.39413-0.69698-18.544517-3.84334-3.150381-3.14635-3.849657-8.7374-3.849657-18.52555z" style="fill:#131313;opacity:.2"/>
  <path d="m1.5017313 262.60416v9.33914c0 9.14491 0.699276 14.36853 3.849657 17.30811 3.150387 2.93959 8.7471787 3.59076 18.544517 3.59076h19.94152c9.797339 0 15.394134-0.65117 18.544517-3.59076 3.150384-2.93958 3.849659-8.1632 3.849659-17.30811v-9.33914z" style="fill:#ffffff;opacity:.05"/>
  <g transform="matrix(.52916667 0 0 .52916667 1.3888314 228.13117)">
   <path d="m101.37543 65.203913c0-22.17163-17.82837-39.999999-39.999997-39.999999-22.171632 0-39.999998 17.82837-39.999998 39.999999-3e-6 22.171628 17.828369 39.999997 39.999998 39.999997 22.171624-1e-5 39.999997-17.828367 39.999997-39.999997zm-25.365851 0c0 8.054886-6.418087 14.634146-14.634146 14.634146-8.377229 0-14.634146-6.742074-14.634146-14.634146 0-8.053274 5.93457-14.634146 14.634146-14.634146 8.699575 0 14.634146 6.740428 14.634146 14.634146z" style="fill:url(#linearGradient2658)"/>
   <path d="m61.375433 50.569767c-8.078048 0-14.634146 6.556097-14.634146 14.634146 0 8.078048 6.556098 14.634146 14.634146 14.634146 8.078047 0 14.634146-6.556098 14.634146-14.634146 0-8.078049-6.556099-14.634146-14.634146-14.634146zm0 7.317072c4.039024 0 7.317073 3.278049 7.317073 7.317074 0 4.039024-3.278049 7.317072-7.317073 7.317072s-7.317073-3.278048-7.317073-7.317072c0-4.039025 3.278049-7.317074 7.317073-7.317074z" style="fill:none"/>
   <g transform="matrix(1.4810728,0,0,1.4810728,22.500165,-338.78264)">
    <g transform="matrix(.0797781 0 0 .0797781 -2.6891497 223.82168)" mask="url(#circle2)">
     <g transform="matrix(1.0716202,0,0,1.0986416,-44.089108,-36.709858)">
      <path transform="matrix(3.9488353,0,0,3.8517125,-125.8293,106.07446)" d="m230.6582 21.472656c-1.32639-0.797536-2.63043-1.611744-4.12109-2.287109-2.11806-0.959619-4.40716-1.800153-6.87891-2.535156-2.47175-0.735004-5.12718-1.364132-7.97851-1.900391-2.85134-0.536259-5.89943-0.97841-9.15625-1.341797-0.68988-0.076975-1.4963-0.113672-2.20508-0.183594l-12.02734 26.751953c-1.12691 2.518361-0.46815 4.362248 1.98828 5.517579l48.74804 23.041015c1.49412 0.700987 2.74682 0.727193 3.75977 0.078125l-27.47656-12.996093 15.34765-34.144532z" style="fill:#59639a"/>
      <path transform="matrix(3.9488353,0,0,3.8517125,-125.8293,106.07446)" d="m249.5 55.171875c-0.16139-1.012187-0.27472-2.136995-0.45703-3.103516-0.53728-2.848413-1.16609-5.501588-1.90235-7.970703-0.73625-2.469115-1.57991-4.75345-2.54101-6.86914s-2.04015-4.061471-3.25195-5.84961c-1.2118-1.788138-2.55656-3.41979-4.04493-4.90625-1.48837-1.486464-3.11989-2.827003-4.91015-4.037109-0.53031-0.358452-1.17611-0.627216-1.73438-0.962891l-15.34765 34.144532 27.47656 12.996093c0.6331-0.441362 1.17792-1.130613 1.62109-2.117187l5.0918-11.324219z" style="fill:#212d74"/>
     </g>
     <path transform="matrix(4.2316516,0,0,4.2316516,-178.93033,79.827955)" d="m249.85938 57.615234c-0.2603-1.874575-0.49058-3.819444-0.81641-5.546875-0.53728-2.848413-1.16609-5.501588-1.90235-7.970703-0.20704-0.694363-0.49074-1.265963-0.71484-1.93164-1.01973-0.438668-1.74126-0.840499-1.78906-1.16211l-19.7168-9.083984-24.91992 54.080078 25.46289 11.734375 3.08399 1.416016c2.28043 1.051599 3.95817 0.438635 5.00976-1.841797l12.71484-27.609375c-0.01591-2.98619 1.79232-7.590164 3.5879-12.083985z" style="fill:#4b5483"/>
     <path d="m775.15 493.4-107.75-49.65-163.2 354.2 56.66839-49.85614 169.18161-148.84386c13.65-11.95 24.45-26.75 32.6-44.45 9.36667-20.26667 13.53333-40.73333 12.5-61.4z" style="fill:#c3c24b"/>
     <path d="m772.85 214.9-120.8-55.7c-9.65-4.45-16.7-1.85-21.2 7.8l-92.05 199.85c-4.45 9.65-1.85 16.75 7.8 21.2l13.1 6.05 107.7 49.65z" style="fill:#7580be"/>
     <path transform="matrix(4.2316516,0,0,4.2316516,-178.93033,79.827955)" d="m172.37695 145.95117-10.53906-4.21679-0.4043 27.96874 10.94336-23.75195z" style="fill:#ede667"/>
     <path transform="matrix(4.2316516,0,0,4.2316516,-178.93033,79.827955)" d="m174.54883 74.267578c-3.88737 2.989377-6.92328 6.876744-9.13281 11.66211-1.97323 4.289105-2.9667 8.589315-2.97852 12.9375 0 0.047262-1e-4 0.095412 0.01172 0.130859-0.01182 0.141788 0 0.270224 0 0.423828l-0.61133 42.312505 10.53906 4.21679 27.62305-59.95117-25.45117-11.732422z" style="fill:#ede667"/>
    </g>
   </g>
  </g>
  <path transform="matrix(.13485389 0 0 .13485389 -4.9712557 261.01666)" d="M 361.9375,-212 C 507.2348,-212 528,-191.28677 528,-46.125 V 70.125 C 528,215.28618 507.2348,236 361.9375,236 H 214.0625 C 68.7652,236 48,215.28618 48,70.125 V -46.125 C 48,-191.28677 68.7652,-212 214.0625,-212 Z" clip-path="url(#clipPath1082-3-5)" style="fill:none;opacity:.4;stroke-linecap:round;stroke-linejoin:round;stroke-width:8;stroke:url(#linearGradient906)"/>
  <path d="m42.712613 274.16712 5.774955-5.07024-5.66796-2.32967z" style="fill:#363636"/>
 </g>
</svg>

<svg xmlns="http://www.w3.org/2000/svg" xmlns:xlink="http://www.w3.org/1999/xlink" width="256" height="256" version="1.1" viewBox="0 0 67.73 67.73">
 <defs>
  <linearGradient id="linearGradient1013">
   <stop style="stop-color:#ffffff" offset="0"/>
   <stop offset=".125" style="stop-color:#ffffff;stop-opacity:0.09803922"/>
   <stop offset=".925" style="stop-color:#000000;stop-opacity:0.09803922"/>
   <stop style="stop-color:#000000;stop-opacity:0.49803922" offset="1"/>
  </linearGradient>
  <clipPath id="clipPath1082-3-5" clipPathUnits="userSpaceOnUse">
   <path style="fill:#8c59d9" d="M 361.9375,-212 C 507.2348,-212 528,-191.28677 528,-46.125 V 70.125 C 528,215.28618 507.2348,236 361.9375,236 H 214.0625 C 68.7652,236 48,215.28618 48,70.125 V -46.125 C 48,-191.28677 68.7652,-212 214.0625,-212 Z"/>
  </clipPath>
  <filter id="filter4569-2" width="1.023" height="1.025" x="-.01" y="-.01" style="color-interpolation-filters:sRGB">
   <feGaussianBlur stdDeviation="1.16"/>
  </filter>
  <filter id="filter913" width="1.046" height="1.05" x="-.02" y="-.03" style="color-interpolation-filters:sRGB">
   <feGaussianBlur stdDeviation="2.32"/>
  </filter>
  <linearGradient id="linearGradient906" x1="296" x2="296" y1="-212" y2="236" gradientUnits="userSpaceOnUse" xlink:href="#linearGradient1013"/>
  <linearGradient id="linearGradient2658" x1="12.274" x2="35.391" y1="32.416" y2="14.203" gradientTransform="matrix(0,2.2857343,-2.2857343,0,114.17591,10.346275)" gradientUnits="userSpaceOnUse" xlink:href="#linearGradient3263"/>
  <linearGradient id="linearGradient3263" x1="12.274" x2="35.391" y1="32.416" y2="14.203" gradientUnits="userSpaceOnUse">
   <stop offset="0" style="stop-color:#dedbde"/>
   <stop offset=".5" style="stop-color:#e6e6e6"/>
   <stop offset="1" style="stop-color:#d2d2d2"/>
  </linearGradient>
  <mask>
   <g>
    <g>
     <path d="m 969.75,392.05 c -1.1,-4.35 -2.35,-9 -3.65,-13.6 -2.5,-8.75 -5.35,-17.6 -8.45,-26.35 -6.45,-18.25 -14.15,-36.05 -23.15,-53.65 -3.8,-7.4 -7.95,-14.95 -12.3,-22.4 -20.3,-34.5 -45.8,-67.2 -76.35,-97.75 C 773.25,105.7 688.7,61.65 592.2,46.25 c -16.25,-2.6 -32.8,-4.4 -50.05,-5.35 -9.7,-0.55 -19.85,-0.85 -30.1,-0.85 -9.35,0 -18.6,0.25 -27.9,0.75 C 365.8,46.9 263.85,92.75 178.3,178.3 Q 40.05,316.55 40.05,512.05 c 0,130.35 46.1,241.65 138.25,333.8 70.4,70.35 151.9,113.85 243.95,130.4 20.45,3.65 40.9,6 61.9,7.1 0.15,0 0.25,0 0.4,0 8.5,0.45 16.6,0.7 24.5,0.7 1.2,0 2.1,0 3,0 10.3,0 20.5,-0.3 30.1,-0.8 2.5,-0.15 4.75,-0.3 6.95,-0.45 20.2,-1.45 39.9,-4.05 58.7,-7.7 7.95,-1.55 15.8,-3.3 23.4,-5.15 80.8,-20.3 152.15,-61.6 214.65,-124.1 48.6,-48.6 84.4,-102.5 107.35,-161.8 18.45,-47.65 28.65,-98.8 30.55,-153.5 0.2,-6.05 0.3,-12.25 0.3,-18.5 0,-0.65 0,-1.35 0,-2 0,-0.35 0,-0.65 0,-1 -0.1,-19.9 -1.25,-39.35 -3.55,-58.55 -2.4,-19.8 -5.95,-39.3 -10.75,-58.45 z" style="fill:#ffffff"/>
    </g>
   </g>
  </mask>
 </defs>
 <g transform="translate(0,-229.26666)">
  <path d="m 188.96876,45.999995 c 72.64865,0 83.03125,10.356615 83.03125,82.937505 v 58.125 c 0,72.58059 -10.3826,82.9375 -83.03125,82.9375 h -73.9375 C 42.382606,270 32.000006,259.64309 32.000006,187.0625 v -58.125 c 0,-72.58089 10.3826,-82.937505 83.031254,-82.937505 z" transform="matrix(0.26970778,0,0,0.26970778,-7.1289177,220.56049)" style="opacity:0.2;filter:url(#filter913)"/>
  <path style="opacity:0.1;filter:url(#filter4569-2)" d="m 188.96876,43.999995 c 72.64865,0 83.03125,10.356615 83.03125,82.937505 v 58.125 c 0,72.58059 -10.3826,82.9375 -83.03125,82.9375 h -73.9375 C 42.382606,268 32.000006,257.64309 32.000006,185.0625 v -58.125 c 0,-72.58089 10.3826,-82.937505 83.031254,-82.937505 z" transform="matrix(0.26970778,0,0,0.26970778,-7.1289177,220.56049)"/>
  <path d="m 24.300553,232.42763 c -9.797337,0 -15.3941298,0.69699 -18.5445168,3.84334 -3.150381,3.14634 -3.849657,8.73736 -3.849657,18.52555 v 15.67677 c 0,9.78815 0.699276,15.3792 3.849657,18.52555 3.150387,3.14636 8.7471788,3.84333 18.5445168,3.84333 h 19.94152 c 9.797339,0 15.394134,-0.69697 18.544517,-3.84333 3.150384,-3.14635 3.849659,-8.7374 3.849659,-18.52555 v -15.67677 c 0,-9.78819 -0.699275,-15.37921 -3.849659,-18.52555 -3.150383,-3.14635 -8.74718,-3.84334 -18.544517,-3.84334 z" style="fill:#4d4d4d"/>
  <path d="m 1.5017313,269.93387 v 0.53942 c 0,9.78815 0.699276,15.3792 3.849657,18.52555 3.150387,3.14636 8.7471787,3.84333 18.5445167,3.84333 h 19.94152 c 9.797339,0 15.394134,-0.69697 18.544517,-3.84333 3.150384,-3.14635 3.849659,-8.7374 3.849659,-18.52555 v -0.53942 c 0,9.78815 -0.699275,15.3792 -3.849659,18.52555 -3.150383,3.14636 -8.747178,3.84334 -18.544517,3.84334 h -19.94152 c -9.797338,0 -15.3941297,-0.69698 -18.5445167,-3.84334 -3.150381,-3.14635 -3.849657,-8.7374 -3.849657,-18.52555 z" style="opacity:0.2;fill:#131313"/>
  <path d="m 1.5017313,262.60416 v 9.33914 c 0,9.14491 0.699276,14.36853 3.849657,17.30811 3.150387,2.93959 8.7471787,3.59076 18.5445167,3.59076 h 19.94152 c 9.797339,0 15.394134,-0.65117 18.544517,-3.59076 3.150384,-2.93958 3.849659,-8.1632 3.849659,-17.30811 v -9.33914 z" style="opacity:0.05;fill:#ffffff"/>
  <g transform="matrix(0.52916667,0,0,0.52916667,1.3888314,228.13117)">
   <path d="m 101.37543,65.203913 c 0,-22.17163 -17.82837,-39.999999 -39.999997,-39.999999 -22.171632,0 -39.999998,17.82837 -39.999998,39.999999 -3e-6,22.171628 17.828369,39.999997 39.999998,39.999997 22.171624,-10e-6 39.999997,-17.828367 39.999997,-39.999997 z m -25.365851,0 c 0,8.054886 -6.418087,14.634146 -14.634146,14.634146 -8.377229,0 -14.634146,-6.742074 -14.634146,-14.634146 0,-8.053274 5.93457,-14.634146 14.634146,-14.634146 8.699575,0 14.634146,6.740428 14.634146,14.634146 z" style="fill:url(#linearGradient2658)"/>
   <path d="m 61.375433,50.569767 c -8.078048,0 -14.634146,6.556097 -14.634146,14.634146 0,8.078048 6.556098,14.634146 14.634146,14.634146 8.078047,0 14.634146,-6.556098 14.634146,-14.634146 0,-8.078049 -6.556099,-14.634146 -14.634146,-14.634146 z m 0,7.317072 c 4.039024,0 7.317073,3.278049 7.317073,7.317074 0,4.039024 -3.278049,7.317072 -7.317073,7.317072 -4.039024,0 -7.317073,-3.278048 -7.317073,-7.317072 0,-4.039025 3.278049,-7.317074 7.317073,-7.317074 z" style="fill:none"/>
   <g transform="matrix(1.4810728,0,0,1.4810728,22.500165,-338.78264)">
    <g mask="url(#circle2)" transform="matrix(0.0797781,0,0,0.0797781,-2.6891497,223.82168)">
     <g>
      <g transform="matrix(1.0716202,0,0,1.0986416,-44.089108,-36.709858)">
       <path d="M 230.6582 21.472656 C 229.33181 20.67512 228.02777 19.860912 226.53711 19.185547 C 224.41905 18.225928 222.12995 17.385394 219.6582 16.650391 C 217.18645 15.915387 214.53102 15.286259 211.67969 14.75 C 208.82835 14.213741 205.78026 13.77159 202.52344 13.408203 C 201.83356 13.331228 201.02714 13.294531 200.31836 13.224609 L 188.29102 39.976562 C 187.16411 42.494923 187.82287 44.33881 190.2793 45.494141 L 239.02734 68.535156 C 240.52146 69.236143 241.77416 69.262349 242.78711 68.613281 L 215.31055 55.617188 L 230.6582 21.472656 z" transform="matrix(3.9488353,0,0,3.8517125,-125.8293,106.07446)" style="fill:#59639a"/>
       <path d="M 249.5 55.171875 C 249.33861 54.159688 249.22528 53.03488 249.04297 52.068359 C 248.50569 49.219946 247.87688 46.566771 247.14062 44.097656 C 246.40437 41.628541 245.56071 39.344206 244.59961 37.228516 C 243.63851 35.112826 242.55946 33.167045 241.34766 31.378906 C 240.13586 29.590768 238.7911 27.959116 237.30273 26.472656 C 235.81436 24.986192 234.18284 23.645653 232.39258 22.435547 C 231.86227 22.077095 231.21647 21.808331 230.6582 21.472656 L 215.31055 55.617188 L 242.78711 68.613281 C 243.42021 68.171919 243.96503 67.482668 244.4082 66.496094 L 249.5 55.171875 z" transform="matrix(3.9488353,0,0,3.8517125,-125.8293,106.07446)" style="fill:#212d74"/>
      </g>
     </g>
     <g>
      <g>
       <path d="M 249.85938 57.615234 C 249.59908 55.740659 249.3688 53.79579 249.04297 52.068359 C 248.50569 49.219946 247.87688 46.566771 247.14062 44.097656 C 246.93358 43.403293 246.64988 42.831693 246.42578 42.166016 C 245.40605 41.727348 244.68452 41.325517 244.63672 41.003906 L 224.91992 31.919922 L 200 86 L 225.46289 97.734375 L 228.54688 99.150391 C 230.82731 100.20199 232.50505 99.589026 233.55664 97.308594 L 246.27148 69.699219 C 246.25557 66.713029 248.0638 62.109055 249.85938 57.615234 z" transform="matrix(4.2316516,0,0,4.2316516,-178.93033,79.827955)" style="fill:#4b5483"/>
       <path style="fill:#c3c24b" d="M 775.15,493.4 667.4,443.75 v 0 L 504.2,797.95 560.86839,748.09386 730.05,599.25 c 13.65,-11.95 24.45,-26.75 32.6,-44.45 9.36667,-20.26667 13.53333,-40.73333 12.5,-61.4 z"/>
       <path style="fill:#7580be" d="m 772.85,214.9 -120.8,-55.7 c -9.65,-4.45 -16.7,-1.85 -21.2,7.8 L 538.8,366.85 c -4.45,9.65 -1.85,16.75 7.8,21.2 l 13.1,6.05 107.7,49.65 z"/>
       <path d="M 172.37695 145.95117 L 161.83789 141.73438 L 161.43359 169.70312 L 172.37695 145.95117 z" transform="matrix(4.2316516,0,0,4.2316516,-178.93033,79.827955)" style="fill:#ede667"/>
       <path d="M 174.54883 74.267578 C 170.66146 77.256955 167.62555 81.144322 165.41602 85.929688 C 163.44279 90.218793 162.44932 94.519003 162.4375 98.867188 C 162.4375 98.91445 162.4374 98.9626 162.44922 98.998047 C 162.4374 99.139835 162.44922 99.268271 162.44922 99.421875 L 161.83789 141.73438 L 172.37695 145.95117 L 200 86 L 174.54883 74.267578 z" transform="matrix(4.2316516,0,0,4.2316516,-178.93033,79.827955)" style="fill:#ede667"/>
      </g>
     </g>
    </g>
   </g>
  </g>
  <path style="opacity:0.4;fill:none;stroke:url(#linearGradient906);stroke-width:8;stroke-linecap:round;stroke-linejoin:round" d="M 361.9375,-212 C 507.2348,-212 528,-191.28677 528,-46.125 V 70.125 C 528,215.28618 507.2348,236 361.9375,236 H 214.0625 C 68.7652,236 48,215.28618 48,70.125 V -46.125 C 48,-191.28677 68.7652,-212 214.0625,-212 Z" clip-path="url(#clipPath1082-3-5)" transform="matrix(0.13485389,0,0,0.13485389,-4.9712557,261.01666)"/>
  <path d="m 42.712613,274.16712 5.774955,-5.07024 -5.66796,-2.32967 z" style="fill:#363636"/>
 </g>
</svg>
